;FLAVOR:Marlin
;TIME:3685
;Filament used: 4.31246m
;Layer height: 0.28
;MINX:114.7
;MINY:114.7
;MINZ:0.28
;MAXX:185.3
;MAXY:185.3
;MAXZ:9.72
;Generated with Cura_SteamEngine 4.8.0
M140 S60
M105
M190 S60
M104 S200
M105
M109 S200
M82 ;absolute extrusion mode
; LONGER Start G-code
G21 ; metric values
G90 ; absolute positioning
M82 ; set extruder to absolute mode
M107 ; start with the fan off
G92 E0 ; Reset Extruder
G28 ; Home all axes
G1 Z2.0 F3000 ; Move Z Axis up little to prevent scratching of Heat Bed
G1 X0.1 Y20 Z0.3 F5000.0 ; Move to start position
G1 X0.1 Y200.0 Z0.3 F1500.0 E15 ; Draw the first line
G1 X0.4 Y200.0 Z0.3 F5000.0 ; Move to side a little
G1 X0.4 Y20 Z0.3 F1500.0 E30 ; Draw the second line
G92 E0 ; Reset Extruder
G1 Z2.0 F3000 ; Move Z Axis up little to prevent scratching of Heat Bed
G1 X5 Y20 Z0.3 F5000.0 ; Move over to prevent blob squish

G92 E0
G92 E0
G1 F2700 E-5
;LAYER_COUNT:34
;LAYER:0
M107
G1 F300 Z0.48
G0 F6000 X116.985 Y117.102 Z0.48
;TYPE:SKIRT
G1 F300 Z0.28
G1 F2700 E0
G1 F1200 X117.102 Y116.985 E0.0077
G1 X117.688 Y116.455 E0.0445
G1 X118.324 Y115.988 E0.08124
G1 X119.004 Y115.587 E0.118
G1 X119.722 Y115.257 E0.15479
G1 X120.469 Y115.002 E0.19155
G1 X121.238 Y114.823 E0.22831
G1 X122.022 Y114.723 E0.26511
G1 X122.617 Y114.7 E0.29284
G1 X177.383 Y114.7 E2.84297
G1 X178.172 Y114.74 E2.87976
G1 X178.952 Y114.859 E2.9165
G1 X179.717 Y115.057 E2.9533
G1 X180.457 Y115.331 E2.99004
G1 X181.166 Y115.679 E3.02682
G1 X181.837 Y116.097 E3.06363
G1 X182.461 Y116.58 E3.10037
G1 X182.898 Y116.985 E3.12811
G1 X183.015 Y117.102 E3.13582
G1 X183.545 Y117.688 E3.17261
G1 X184.012 Y118.324 E3.20935
G1 X184.413 Y119.004 E3.24611
G1 X184.743 Y119.722 E3.28291
G1 X184.998 Y120.469 E3.31966
G1 X185.177 Y121.238 E3.35643
G1 X185.277 Y122.022 E3.39323
G1 X185.3 Y122.617 E3.42095
G1 X185.3 Y177.383 E5.97109
G1 X185.26 Y178.172 E6.00787
G1 X185.141 Y178.952 E6.04461
G1 X184.943 Y179.717 E6.08141
G1 X184.669 Y180.457 E6.11815
G1 X184.321 Y181.166 E6.15493
G1 X183.903 Y181.837 E6.19174
G1 X183.42 Y182.461 E6.22848
G1 X183.015 Y182.898 E6.25623
G1 X182.898 Y183.015 E6.26393
G1 X182.312 Y183.545 E6.30072
G1 X181.676 Y184.012 E6.33747
G1 X180.996 Y184.413 E6.37422
G1 X180.278 Y184.743 E6.41102
G1 X179.531 Y184.998 E6.44777
G1 X178.762 Y185.177 E6.48454
G1 X177.978 Y185.277 E6.52134
G1 X177.383 Y185.3 E6.54907
G1 X122.617 Y185.3 E9.0992
G1 X121.828 Y185.26 E9.13599
G1 X121.048 Y185.141 E9.17273
G1 X120.283 Y184.943 E9.20952
G1 X119.543 Y184.669 E9.24627
G1 X118.834 Y184.321 E9.28304
G1 X118.163 Y183.903 E9.31986
G1 X117.539 Y183.42 E9.3566
G1 X117.102 Y183.015 E9.38434
G1 X116.985 Y182.898 E9.39205
G1 X116.455 Y182.312 E9.42884
G1 X115.988 Y181.676 E9.46558
G1 X115.587 Y180.996 E9.50234
G1 X115.257 Y180.278 E9.53913
G1 X115.002 Y179.531 E9.57589
G1 X114.823 Y178.762 E9.61265
G1 X114.723 Y177.978 E9.64946
G1 X114.7 Y177.383 E9.67718
G1 X114.7 Y122.617 E12.22732
G1 X114.74 Y121.828 E12.2641
G1 X114.859 Y121.048 E12.30084
G1 X115.057 Y120.283 E12.33764
G1 X115.331 Y119.543 E12.37438
G1 X115.679 Y118.834 E12.41116
G1 X116.097 Y118.163 E12.44797
G1 X116.58 Y117.539 E12.48471
G1 X116.985 Y117.102 E12.51246
G0 F6000 X117.267 Y117.384
G1 F1200 X117.384 Y117.267 E12.52016
G1 X117.956 Y116.753 E12.55597
G1 X118.578 Y116.3 E12.5918
G1 X119.243 Y115.914 E12.6276
G1 X119.945 Y115.599 E12.66343
G1 X120.676 Y115.359 E12.69926
G1 X121.427 Y115.196 E12.73504
G1 X122.192 Y115.112 E12.77088
G1 X122.617 Y115.1 E12.79068
G1 X177.383 Y115.1 E15.34081
G1 X178.151 Y115.14 E15.37662
G1 X178.911 Y115.259 E15.41244
G1 X179.654 Y115.457 E15.44824
G1 X180.373 Y115.731 E15.48407
G1 X181.059 Y116.078 E15.51987
G1 X181.706 Y116.494 E15.55569
G1 X182.306 Y116.975 E15.59149
G1 X182.616 Y117.267 E15.61132
G1 X182.733 Y117.384 E15.61903
G1 X183.247 Y117.956 E15.65484
G1 X183.7 Y118.578 E15.69067
G1 X184.086 Y119.243 E15.72647
G1 X184.401 Y119.945 E15.7623
G1 X184.641 Y120.676 E15.79813
G1 X184.804 Y121.427 E15.83391
G1 X184.888 Y122.192 E15.86974
G1 X184.9 Y122.617 E15.88954
G1 X184.9 Y177.383 E18.43968
G1 X184.86 Y178.151 E18.47549
G1 X184.741 Y178.911 E18.51131
G1 X184.543 Y179.654 E18.54711
G1 X184.269 Y180.373 E18.58294
G1 X183.922 Y181.059 E18.61874
G1 X183.506 Y181.706 E18.65455
G1 X183.025 Y182.306 E18.69036
G1 X182.733 Y182.616 E18.71019
G1 X182.616 Y182.733 E18.7179
G1 X182.044 Y183.247 E18.7537
G1 X181.422 Y183.7 E18.78953
G1 X180.757 Y184.086 E18.82534
G1 X180.055 Y184.401 E18.86117
G1 X179.324 Y184.641 E18.89699
G1 X178.573 Y184.804 E18.93278
G1 X177.808 Y184.888 E18.96861
G1 X177.383 Y184.9 E18.98841
G1 X122.617 Y184.9 E21.53854
G1 X121.849 Y184.86 E21.57435
G1 X121.089 Y184.741 E21.61017
G1 X120.346 Y184.543 E21.64598
G1 X119.627 Y184.269 E21.68181
G1 X118.941 Y183.922 E21.7176
G1 X118.294 Y183.506 E21.75342
G1 X117.694 Y183.025 E21.78923
G1 X117.384 Y182.733 E21.80906
G1 X117.267 Y182.616 E21.81676
G1 X116.753 Y182.044 E21.85257
G1 X116.3 Y181.422 E21.8884
G1 X115.914 Y180.757 E21.92421
G1 X115.599 Y180.055 E21.96003
G1 X115.359 Y179.324 E21.99586
G1 X115.196 Y178.573 E22.03164
G1 X115.112 Y177.808 E22.06748
G1 X115.1 Y177.383 E22.08728
G1 X115.1 Y122.617 E24.63741
G1 X115.14 Y121.849 E24.67322
G1 X115.259 Y121.089 E24.70904
G1 X115.457 Y120.346 E24.74485
G1 X115.731 Y119.627 E24.78067
G1 X116.078 Y118.941 E24.81647
G1 X116.494 Y118.294 E24.85229
G1 X116.975 Y117.694 E24.8881
G1 X117.267 Y117.384 E24.90793
G0 F6000 X117.55 Y117.667
G1 F1200 X117.667 Y117.55 E24.91563
G1 X118.224 Y117.05 E24.95048
G1 X118.83 Y116.613 E24.98527
G1 X119.48 Y116.242 E25.02012
G1 X120.166 Y115.943 E25.05497
G1 X120.88 Y115.719 E25.08981
G1 X121.613 Y115.572 E25.12462
G1 X122.617 Y115.5 E25.1715
G1 X177.383 Y115.5 E27.72163
G1 X178.13 Y115.54 E27.75646
G1 X178.868 Y115.659 E27.79127
G1 X179.59 Y115.857 E27.82613
G1 X180.286 Y116.13 E27.86094
G1 X180.949 Y116.477 E27.89579
G1 X181.572 Y116.892 E27.93065
G1 X182.333 Y117.55 E27.97749
G1 X182.45 Y117.667 E27.9852
G1 X182.95 Y118.224 E28.02005
G1 X183.387 Y118.83 E28.05484
G1 X183.758 Y119.48 E28.08969
G1 X184.057 Y120.166 E28.12453
G1 X184.281 Y120.88 E28.15938
G1 X184.428 Y121.613 E28.19419
G1 X184.5 Y122.617 E28.24106
G1 X184.5 Y177.383 E30.79119
G1 X184.46 Y178.13 E30.82603
G1 X184.341 Y178.868 E30.86084
G1 X184.143 Y179.59 E30.8957
G1 X183.87 Y180.286 E30.93051
G1 X183.523 Y180.949 E30.96535
G1 X183.108 Y181.572 E31.00021
G1 X182.45 Y182.333 E31.04705
G1 X182.333 Y182.45 E31.05476
G1 X181.776 Y182.95 E31.08961
G1 X181.17 Y183.387 E31.1244
G1 X180.52 Y183.758 E31.15925
G1 X179.834 Y184.057 E31.1941
G1 X179.12 Y184.281 E31.22894
G1 X178.387 Y184.428 E31.26375
G1 X177.383 Y184.5 E31.31062
G1 X122.617 Y184.5 E33.86076
G1 X121.87 Y184.46 E33.89559
G1 X121.132 Y184.341 E33.9304
G1 X120.41 Y184.143 E33.96526
G1 X119.714 Y183.87 E34.00007
G1 X119.051 Y183.523 E34.03492
G1 X118.428 Y183.108 E34.06977
G1 X117.667 Y182.45 E34.11662
G1 X117.55 Y182.333 E34.12432
G1 X117.05 Y181.776 E34.15918
G1 X116.613 Y181.17 E34.19397
G1 X116.242 Y180.52 E34.22882
G1 X115.943 Y179.834 E34.26366
G1 X115.719 Y179.12 E34.29851
G1 X115.572 Y178.387 E34.33332
G1 X115.5 Y177.383 E34.38019
G1 X115.5 Y122.617 E36.93032
G1 X115.54 Y121.87 E36.96515
G1 X115.659 Y121.132 E36.99996
G1 X115.857 Y120.41 E37.03482
G1 X116.13 Y119.714 E37.06964
G1 X116.477 Y119.051 E37.10448
G1 X116.892 Y118.428 E37.13934
G1 X117.55 Y117.667 E37.18618
G0 F6000 X117.833 Y117.95
G1 F1200 X117.95 Y117.833 E37.19389
G1 X118.491 Y117.349 E37.22769
G1 X119.082 Y116.926 E37.26153
G1 X119.716 Y116.572 E37.29534
G1 X120.385 Y116.289 E37.32917
G1 X121.081 Y116.081 E37.36299
G1 X121.796 Y115.951 E37.39683
G1 X122.617 Y115.9 E37.43513
G1 X177.383 Y115.9 E39.98527
G1 X178.108 Y115.94 E40.01908
G1 X178.825 Y116.059 E40.05292
G1 X179.524 Y116.257 E40.08675
G1 X180.197 Y116.53 E40.12057
G1 X180.836 Y116.875 E40.15438
G1 X181.433 Y117.289 E40.18821
G1 X182.05 Y117.833 E40.22651
G1 X182.167 Y117.95 E40.23422
G1 X182.651 Y118.491 E40.26802
G1 X183.074 Y119.082 E40.30186
G1 X183.428 Y119.716 E40.33567
G1 X183.711 Y120.385 E40.3695
G1 X183.919 Y121.081 E40.40332
G1 X184.049 Y121.796 E40.43716
G1 X184.1 Y122.617 E40.47546
G1 X184.1 Y177.383 E43.0256
G1 X184.06 Y178.108 E43.05941
G1 X183.941 Y178.825 E43.09325
G1 X183.743 Y179.524 E43.12708
G1 X183.47 Y180.197 E43.1609
G1 X183.125 Y180.836 E43.19471
G1 X182.711 Y181.433 E43.22854
G1 X182.167 Y182.05 E43.26684
G1 X182.05 Y182.167 E43.27455
G1 X181.509 Y182.651 E43.30835
G1 X180.918 Y183.074 E43.34219
G1 X180.284 Y183.428 E43.376
G1 X179.615 Y183.711 E43.40983
G1 X178.919 Y183.919 E43.44365
G1 X178.204 Y184.049 E43.47749
G1 X177.383 Y184.1 E43.5158
G1 X122.617 Y184.1 E46.06593
G1 X121.892 Y184.06 E46.09974
G1 X121.175 Y183.941 E46.13358
G1 X120.476 Y183.743 E46.16741
G1 X119.803 Y183.47 E46.20123
G1 X119.164 Y183.125 E46.23504
G1 X118.567 Y182.711 E46.26887
G1 X117.95 Y182.167 E46.30718
G1 X117.833 Y182.05 E46.31488
G1 X117.349 Y181.509 E46.34868
G1 X116.926 Y180.918 E46.38252
G1 X116.572 Y180.284 E46.41634
G1 X116.289 Y179.615 E46.45016
G1 X116.081 Y178.919 E46.48398
G1 X115.951 Y178.204 E46.51782
G1 X115.9 Y177.383 E46.55613
G1 X115.9 Y122.617 E49.10626
G1 X115.94 Y121.892 E49.14007
G1 X116.059 Y121.175 E49.17391
G1 X116.257 Y120.476 E49.20774
G1 X116.53 Y119.803 E49.24156
G1 X116.875 Y119.164 E49.27538
G1 X117.289 Y118.567 E49.3092
G1 X117.833 Y117.95 E49.34751
G0 F6000 X118.116 Y118.233
G1 F1200 X118.233 Y118.116 E49.35521
G1 X118.758 Y117.647 E49.38799
G1 X119.333 Y117.241 E49.42077
G1 X119.951 Y116.903 E49.45357
G1 X120.602 Y116.636 E49.48633
G1 X121.28 Y116.446 E49.51912
G1 X121.975 Y116.333 E49.5519
G1 X122.617 Y116.3 E49.58184
G1 X177.383 Y116.3 E52.13197
G1 X178.086 Y116.34 E52.16476
G1 X178.78 Y116.459 E52.19755
G1 X179.455 Y116.657 E52.2303
G1 X180.104 Y116.929 E52.26307
G1 X180.718 Y117.274 E52.29586
G1 X181.289 Y117.685 E52.32862
G1 X181.767 Y118.116 E52.35859
G1 X181.884 Y118.233 E52.3663
G1 X182.353 Y118.758 E52.39908
G1 X182.759 Y119.333 E52.43185
G1 X183.097 Y119.951 E52.46465
G1 X183.364 Y120.602 E52.49742
G1 X183.554 Y121.28 E52.5302
G1 X183.667 Y121.975 E52.56299
G1 X183.7 Y122.617 E52.59292
G1 X183.7 Y177.383 E55.14306
G1 X183.66 Y178.086 E55.17585
G1 X183.541 Y178.78 E55.20863
G1 X183.343 Y179.455 E55.24139
G1 X183.071 Y180.104 E55.27416
G1 X182.726 Y180.718 E55.30695
G1 X182.315 Y181.289 E55.33971
G1 X181.884 Y181.767 E55.36968
G1 X181.767 Y181.884 E55.37738
G1 X181.242 Y182.353 E55.41016
G1 X180.667 Y182.759 E55.44294
G1 X180.049 Y183.097 E55.47574
G1 X179.398 Y183.364 E55.5085
G1 X178.72 Y183.554 E55.54129
G1 X178.025 Y183.667 E55.57408
G1 X177.383 Y183.7 E55.60401
G1 X122.617 Y183.7 E58.15415
G1 X121.914 Y183.66 E58.18693
G1 X121.22 Y183.541 E58.21972
G1 X120.545 Y183.343 E58.25248
G1 X119.896 Y183.071 E58.28524
G1 X119.282 Y182.726 E58.31804
G1 X118.711 Y182.315 E58.3508
G1 X118.233 Y181.884 E58.38077
G1 X118.116 Y181.767 E58.38847
G1 X117.647 Y181.242 E58.42125
G1 X117.241 Y180.667 E58.45403
G1 X116.903 Y180.049 E58.48683
G1 X116.636 Y179.398 E58.51959
G1 X116.446 Y178.72 E58.55238
G1 X116.333 Y178.025 E58.58516
G1 X116.3 Y177.383 E58.6151
G1 X116.3 Y122.617 E61.16523
G1 X116.34 Y121.914 E61.19802
G1 X116.459 Y121.22 E61.23081
G1 X116.657 Y120.545 E61.26356
G1 X116.929 Y119.896 E61.29633
G1 X117.274 Y119.282 E61.32912
G1 X117.685 Y118.711 E61.36188
G1 X118.116 Y118.233 E61.39185
G0 F6000 X118.399 Y118.516
G1 F1200 X118.516 Y118.399 E61.39956
G1 X119.025 Y117.946 E61.43129
G1 X119.583 Y117.557 E61.46296
G1 X120.183 Y117.235 E61.49467
G1 X120.817 Y116.986 E61.52638
G1 X121.476 Y116.813 E61.55811
G1 X122.15 Y116.719 E61.5898
G1 X122.617 Y116.7 E61.61156
G1 X177.383 Y116.7 E64.1617
G1 X178.063 Y116.74 E64.19341
G1 X178.733 Y116.859 E64.2251
G1 X179.385 Y117.056 E64.25682
G1 X180.009 Y117.328 E64.28851
G1 X180.597 Y117.672 E64.32023
G1 X181.141 Y118.082 E64.35195
G1 X181.484 Y118.399 E64.3737
G1 X181.601 Y118.516 E64.38141
G1 X182.054 Y119.025 E64.41313
G1 X182.443 Y119.583 E64.44481
G1 X182.765 Y120.183 E64.47651
G1 X183.014 Y120.817 E64.50823
G1 X183.187 Y121.476 E64.53996
G1 X183.281 Y122.15 E64.57164
G1 X183.3 Y122.617 E64.59341
G1 X183.3 Y177.383 E67.14354
G1 X183.26 Y178.063 E67.17526
G1 X183.141 Y178.733 E67.20695
G1 X182.944 Y179.385 E67.23866
G1 X182.672 Y180.009 E67.27036
G1 X182.328 Y180.597 E67.30208
G1 X181.918 Y181.141 E67.3338
G1 X181.601 Y181.484 E67.35555
G1 X181.484 Y181.601 E67.36325
G1 X180.975 Y182.054 E67.39498
G1 X180.417 Y182.443 E67.42665
G1 X179.817 Y182.765 E67.45836
G1 X179.183 Y183.014 E67.49008
G1 X178.524 Y183.187 E67.5218
G1 X177.85 Y183.281 E67.55349
G1 X177.383 Y183.3 E67.57526
G1 X122.617 Y183.3 E70.12539
G1 X121.937 Y183.26 E70.15711
G1 X121.267 Y183.141 E70.18879
G1 X120.615 Y182.944 E70.22051
G1 X119.991 Y182.672 E70.25221
G1 X119.403 Y182.328 E70.28393
G1 X118.859 Y181.918 E70.31565
G1 X118.516 Y181.601 E70.3374
G1 X118.399 Y181.484 E70.3451
G1 X117.946 Y180.975 E70.37683
G1 X117.557 Y180.417 E70.4085
G1 X117.235 Y179.817 E70.44021
G1 X116.986 Y179.183 E70.47193
G1 X116.813 Y178.524 E70.50365
G1 X116.719 Y177.85 E70.53534
G1 X116.7 Y177.383 E70.5571
G1 X116.7 Y122.617 E73.10724
G1 X116.74 Y121.937 E73.13896
G1 X116.859 Y121.267 E73.17064
G1 X117.056 Y120.615 E73.20236
G1 X117.328 Y119.991 E73.23405
G1 X117.672 Y119.403 E73.26578
G1 X118.082 Y118.859 E73.29749
G1 X118.399 Y118.516 E73.31924
G0 F6000 X118.682 Y118.799
G1 F1200 X118.799 Y118.682 E73.32695
G1 X119.291 Y118.246 E73.35756
G1 X119.832 Y117.874 E73.38813
G1 X120.414 Y117.57 E73.4187
G1 X121.029 Y117.339 E73.4493
G1 X121.668 Y117.184 E73.47991
G1 X122.617 Y117.1 E73.52427
G1 X177.383 Y117.1 E76.07441
G1 X178.039 Y117.14 E76.10501
G1 X178.685 Y117.259 E76.1356
G1 X179.312 Y117.456 E76.1662
G1 X179.91 Y117.728 E76.19679
G1 X180.471 Y118.07 E76.22739
G1 X181.201 Y118.682 E76.27174
G1 X181.318 Y118.799 E76.27945
G1 X181.754 Y119.291 E76.31006
G1 X182.126 Y119.832 E76.34063
G1 X182.43 Y120.414 E76.37121
G1 X182.661 Y121.029 E76.4018
G1 X182.816 Y121.668 E76.43241
G1 X182.9 Y122.617 E76.47678
G1 X182.9 Y177.383 E79.02691
G1 X182.86 Y178.039 E79.05751
G1 X182.741 Y178.685 E79.0881
G1 X182.544 Y179.312 E79.1187
G1 X182.272 Y179.91 E79.14929
G1 X181.93 Y180.471 E79.17989
G1 X181.318 Y181.201 E79.22424
G1 X181.201 Y181.318 E79.23195
G1 X180.709 Y181.754 E79.26256
G1 X180.168 Y182.126 E79.29313
G1 X179.586 Y182.43 E79.32371
G1 X178.971 Y182.661 E79.3543
G1 X178.332 Y182.816 E79.38491
G1 X177.383 Y182.9 E79.42928
G1 X122.617 Y182.9 E81.97941
G1 X121.961 Y182.86 E82.01001
G1 X121.315 Y182.741 E82.0406
G1 X120.688 Y182.544 E82.0712
G1 X120.09 Y182.272 E82.10179
G1 X119.529 Y181.93 E82.13239
G1 X118.799 Y181.318 E82.17674
G1 X118.682 Y181.201 E82.18445
G1 X118.246 Y180.709 E82.21506
G1 X117.874 Y180.168 E82.24563
G1 X117.57 Y179.586 E82.27621
G1 X117.339 Y178.971 E82.3068
G1 X117.184 Y178.332 E82.33741
G1 X117.1 Y177.383 E82.38178
G1 X117.1 Y122.617 E84.93191
G1 X117.14 Y121.961 E84.96251
G1 X117.259 Y121.315 E84.9931
G1 X117.456 Y120.688 E85.0237
G1 X117.728 Y120.09 E85.05429
G1 X118.07 Y119.529 E85.08489
G1 X118.682 Y118.799 E85.12924
G0 F6000 X118.964 Y119.081
G1 F1200 X119.081 Y118.964 E85.13695
G1 X119.556 Y118.547 E85.16638
G1 X120.079 Y118.192 E85.19581
G1 X120.643 Y117.906 E85.22526
G1 X121.238 Y117.694 E85.25467
G1 X121.856 Y117.558 E85.28414
G1 X122.617 Y117.5 E85.31967
G1 X177.383 Y117.5 E87.86981
G1 X178.014 Y117.54 E87.89925
G1 X178.635 Y117.659 E87.92869
G1 X179.235 Y117.856 E87.9581
G1 X179.807 Y118.127 E87.98757
G1 X180.339 Y118.467 E88.01697
G1 X180.919 Y118.964 E88.05254
G1 X181.036 Y119.081 E88.06024
G1 X181.453 Y119.556 E88.08967
G1 X181.808 Y120.079 E88.11911
G1 X182.094 Y120.643 E88.14855
G1 X182.306 Y121.238 E88.17796
G1 X182.442 Y121.856 E88.20743
G1 X182.5 Y122.617 E88.24297
G1 X182.5 Y177.383 E90.7931
G1 X182.46 Y178.014 E90.82254
G1 X182.341 Y178.635 E90.85198
G1 X182.144 Y179.235 E90.88139
G1 X181.873 Y179.807 E90.91086
G1 X181.533 Y180.339 E90.94026
G1 X181.036 Y180.919 E90.97583
G1 X180.919 Y181.036 E90.98353
G1 X180.444 Y181.453 E91.01297
G1 X179.921 Y181.808 E91.0424
